apps/web/assets/svg/visual-password.svg

<svg
	width="24"
	height="24"
	viewBox="0 0 24 24"
	fill="none"
	xmlns="http://www.w3.org/2000/svg"
>
	<path
		d="M21.9375 10.0078C21.7266 9.82031 21.5078 9.64063 21.2812 9.46875C21.0547 9.29687 20.8281 9.12891 20.6016 8.96484L11.5898 17.9766C11.6602 17.9766 11.7266 17.9805 11.7891 17.9883C11.8516 17.9961 11.9219 18 12 18C12.3594 18 12.7148 17.9844 13.0664 17.9531C13.418 17.9219 13.7734 17.8711 14.1328 17.8008L21.9375 10.0078ZM0 12C1 13.125 2.11328 14.1289 3.33984 15.0117C4.56641 15.8945 5.89062 16.5977 7.3125 17.1211L3.22266 21.2227L4.27734 22.2773L8.94141 17.6133L9.67969 17.7656L19.3125 8.13281L18.75 7.80469L23.7773 2.77734L22.7227 1.72266L17.3203 7.125C16.4766 6.76563 15.6094 6.48828 14.7188 6.29297C13.8281 6.09766 12.9219 6 12 6C10.8281 6 9.6875 6.15234 8.57812 6.45703C7.46875 6.76172 6.40625 7.17969 5.39062 7.71094C4.375 8.24219 3.41406 8.87891 2.50781 9.62109C1.60156 10.3633 0.765625 11.1562 0 12ZM12 7.5C12.6016 7.5 13.1758 7.61328 13.7227 7.83984C14.2695 8.06641 14.7578 8.39062 15.1875 8.8125L13.0664 10.9336C12.9258 10.793 12.7656 10.6875 12.5859 10.6172C12.4063 10.5469 12.2109 10.5078 12 10.5C11.7891 10.5 11.5937 10.5391 11.4141 10.6172C11.2344 10.6953 11.0742 10.8008 10.9336 10.9336C10.793 11.0664 10.6875 11.2227 10.6172 11.4023C10.5469 11.582 10.5078 11.7813 10.5 12C10.5 12.2031 10.5352 12.3945 10.6055 12.5742C10.6758 12.7539 10.7852 12.918 10.9336 13.0664L8.8125 15.1875C8.39062 14.7656 8.06641 14.2813 7.83984 13.7344C7.61328 13.1875 7.5 12.6094 7.5 12C7.5 11.375 7.61719 10.7891 7.85156 10.2422C8.08594 9.69531 8.40625 9.21875 8.8125 8.8125C9.21875 8.40625 9.69531 8.08594 10.2422 7.85156C10.7891 7.61719 11.375 7.5 12 7.5ZM7.08984 15.4219C6.15234 15.0078 5.26563 14.5117 4.42969 13.9336C3.59375 13.3555 2.80859 12.7109 2.07422 12C2.80859 11.2891 3.59375 10.6445 4.42969 10.0664C5.26563 9.48828 6.15234 8.99219 7.08984 8.57812C6.73828 9.07813 6.47266 9.62109 6.29297 10.207C6.11328 10.793 6.02344 11.3906 6.02344 12C6.02344 12.6094 6.11328 13.207 6.29297 13.793C6.47266 14.3789 6.73828 14.9219 7.08984 15.4219ZM24 12C23.6953 11.6641 23.3789 11.3359 23.0508 11.0156L17.0625 17.0039C18.4062 16.4648 19.6563 15.7656 20.8125 14.9062C21.9687 14.0469 23.0313 13.0781 24 12Z"
		fill="currentColor"
	/>
</svg>

<svg xmlns="http://www.w3.org/2000/svg" width="24" height="24" fill="none" viewBox="0 0 24 24"><path fill="currentColor" d="M21.938 10.008a10.92 10.92 0 0 0-.657-.54 33.94 33.94 0 0 0-.68-.503l-9.011 9.012c.07 0 .137.003.2.011.062.008.132.012.21.012.36 0 .715-.016 1.066-.047.352-.031.707-.082 1.067-.152l7.805-7.793ZM0 12c1 1.125 2.113 2.129 3.34 3.012a16.564 16.564 0 0 0 3.973 2.11l-4.09 4.1 1.054 1.055 4.664-4.664.739.153 9.633-9.633-.563-.328 5.027-5.028-1.054-1.054-5.403 5.402c-.843-.36-1.71-.637-2.601-.832A12.656 12.656 0 0 0 12 6c-1.172 0-2.313.152-3.422.457-1.11.305-2.172.723-3.187 1.254a16.918 16.918 0 0 0-2.883 1.91A23.392 23.392 0 0 0 0 12Zm12-4.5a4.45 4.45 0 0 1 1.723.34c.546.226 1.035.55 1.464.973l-2.12 2.12a1.39 1.39 0 0 0-.481-.316c-.18-.07-.375-.11-.586-.117-.21 0-.406.04-.586.117-.18.078-.34.184-.48.317a1.279 1.279 0 0 0-.317.468c-.07.18-.11.38-.117.598 0 .203.035.395.105.574.07.18.18.344.329.492l-2.121 2.121a4.44 4.44 0 0 1-.973-1.453A4.487 4.487 0 0 1 7.5 12c0-.625.117-1.21.352-1.758a4.515 4.515 0 0 1 .96-1.43 4.515 4.515 0 0 1 1.43-.96A4.415 4.415 0 0 1 12 7.5Zm-4.91 7.922a16.108 16.108 0 0 1-2.66-1.488A18.558 18.558 0 0 1 2.074 12c.735-.71 1.52-1.355 2.356-1.934a16.104 16.104 0 0 1 2.66-1.488 5.74 5.74 0 0 0-.797 1.629 6.083 6.083 0 0 0 0 3.586 5.74 5.74 0 0 0 .797 1.629ZM24 12a22.53 22.53 0 0 0-.95-.984l-5.988 5.988a16.655 16.655 0 0 0 3.75-2.098A21.588 21.588 0 0 0 24 12Z"/></svg>
